X:1
T:Title
%%score { ( 1 4 ) | ( 2 3 ) }
L:1/8
Q:1/4=100
M:2/4
K:D
V:1 treble nm="Grand Piano"
V:4 treble 
V:2 bass 
V:3 bass 
V:1
 [A,FA][A,FA] [A,DF][DFA] | [DFB]2 [DFB]2 | [B,EG][^A,EG] [=A,EG][A,CA] | F4 | BB BB |[M:1/4] AA | %6
w: Powell~G.~Fithian * * *||||||
 DD |[M:2/4] G2 F2 | [CE]4 | [EA][EA] BB | c2 Ac | [Fd][FB] A^G | A2 Bc | [Fd][Fd] [FA]F | %14
w: ||||||||
 EB [FA][EG] | z2 [CE]2 | D4 | [Fd][Fd] [FA][F=c] | [GB]2 [AB]2 | [^Ge][Ge] [GB][Gd] | c4 | %21
w: |||||||
 [Fd][Fd] [Ac][GB] | [FA]F DG | z2 [CE]2 | D4 |] %25
w: ||||
V:2
 D,D, D,D, | B,,2 B,,2 | E,D, C,A,, | [D,A,D]4 | [G,D][G,D] [G,D][G,D] |[M:1/4] [F,A,D][F,A,D] | %6
 [F,A,][F,A,] |[M:2/4] [E,A,C]2 [D,A,D]2 | [A,,A,]4 | [C,A,][C,A,] [E,^G,E][E,G,E] | %10
 [A,E]2 [A,CE][A,EG] | [D,D][D,D] [E,CE][E,B,E] | A,2- [A,-D^G][A,E=G] | [D,D][D,D] [D,D][D,A,D] | %14
 [G,B,][G,B,E] [^D,=C][E,B,] | [A,,A,]2 .[A,,A,]2 | [D,F,]4 | [D,A,][D,A,] [D,D][D,D] | %18
 [G,D]2 [F,^D]2 | [E,E][E,E] [E,E][E,E] | A2 z2 | [D,D][D,D] [D,D][D,D] | %22
 [D,D][D,A,D] [F,A,][G,B,E] | [A,D]2 .[A,,A,]2 | [D,F,]4 |] %25
V:3
 x4 | x4 | x4 | x4 | x4 |[M:1/4] x2 | x2 |[M:2/4] x4 | x4 | x4 | x4 | x4 | [CE]2 z2 | x4 | x4 | %15
 x4 | x4 | x4 | x4 | x4 | [A,E]4 | x4 | x4 | x4 | x4 |] %25
V:4
 x4 | x4 | x4 | x4 | x4 |[M:1/4] x2 | x2 |[M:2/4] x4 | x4 | x4 | x4 | x4 | x4 | x4 | x4 | %15
 [DF]2 z G, | x4 | x4 | x4 | x4 | z2 G2 | x4 | x4 | F2 z G, | x4 |] %25

